FlatUX/src/svg/Hartung - Game Master.svg

<svg enable-background="new 0 0 256 256" viewBox="0 0 256 256" xmlns="http://www.w3.org/2000/svg"><path d="m212 188h-168c-17.673 0-32-10.327-32-28l11.056-81.081c.541-3.964 3.927-6.919 7.927-6.919h194.034c4.001 0 7.386 2.955 7.927 6.919l11.056 81.081c0 17.673-14.327 28-32 28z" fill="#2b3e51"/><path d="m22.255 73.234-1.378 4.134c-.431 1.295.533 2.632 1.898 2.632h22.135c1.82 0 3.411 1.229 3.87 2.99l20.88 80.039c1.378 5.284 6.15 8.971 11.611 8.971h94.729c6.627 0 12-5.373 12-12v-72c0-4.418 3.582-8 8-8h20c2.209 0 4-1.791 4-4v-4c0-2.209-1.791-4-4-4h-88-100c-3.318.138-4.694 2.083-5.745 5.234z" fill="#223140"/><path d="m172 168h-84c-4.418 0-8-3.582-8-8v-80c0-4.418 3.582-8 8-8h84c4.418 0 8 3.582 8 8v80c0 4.418-3.582 8-8 8z" fill="#35495f"/><path d="m104 92h52v60h-52z" fill="#6c7a88"/><g fill="#223140"><circle cx="47" cy="97" r="1"/><circle cx="41" cy="97" r="1"/><circle cx="35" cy="97" r="1"/><circle cx="47" cy="101" r="1"/><circle cx="41" cy="101" r="1"/><circle cx="35" cy="101" r="1"/><circle cx="29" cy="101" r="1"/><circle cx="47" cy="105" r="1"/><circle cx="41" cy="105" r="1"/><circle cx="35" cy="105" r="1"/><circle cx="29" cy="105" r="1"/><circle cx="47" cy="109" r="1"/><circle cx="41" cy="109" r="1"/><circle cx="35" cy="109" r="1"/></g><path d="m56 160-7.589-2.53 2.529-7.589-7.589-2.53-2.53 7.589-7.589-2.529-2.53 7.589 7.589 2.53-2.53 7.589 7.59 2.53 2.53-7.589 7.589 2.529z" fill="#35495f"/><circle cx="43.351" cy="160" fill="#2b3e51" r="3"/><circle cx="204" cy="120" fill="#35495f" r="4"/><circle cx="220" cy="116" fill="#35495f" r="4"/><path d="m232 140h-.768l-51.334 44h1.537l50.565-43.341z" fill="#223140"/><circle cx="200" cy="168" fill="#35495f" r="8"/><circle cx="224" cy="152" fill="#35495f" r="8"/><path d="m72.031 184c-1.94-15.556-7.48-27.273-16.522-34.846-12.489-10.46-27.41-9.106-27.559-9.088l.1.994c.146-.014 14.647-1.332 26.818 8.86 8.818 7.384 14.234 18.844 16.156 34.079h1.007z" fill="#223140"/></svg>

<svg xmlns="http://www.w3.org/2000/svg" viewBox="0 0 256 256"><path fill="#2b3e51" d="M212 188H44c-17.673 0-32-10.327-32-28l11.056-81.081A8 8 0 0 1 30.983 72h194.034a8 8 0 0 1 7.927 6.919L244 160c0 17.673-14.327 28-32 28"/><path fill="#223140" d="m22.255 73.234-1.378 4.134A2 2 0 0 0 22.775 80H44.91a4 4 0 0 1 3.87 2.99l20.88 80.039A12 12 0 0 0 81.271 172H176c6.627 0 12-5.373 12-12V88a8 8 0 0 1 8-8h20a4 4 0 0 0 4-4v-4a4 4 0 0 0-4-4H28c-3.318.138-4.694 2.083-5.745 5.234"/><path fill="#35495f" d="M172 168H88a8 8 0 0 1-8-8V80a8 8 0 0 1 8-8h84a8 8 0 0 1 8 8v80a8 8 0 0 1-8 8"/><path fill="#6c7a88" d="M104 92h52v60h-52z"/><g fill="#223140"><circle cx="47" cy="97" r="1"/><circle cx="41" cy="97" r="1"/><circle cx="35" cy="97" r="1"/><circle cx="47" cy="101" r="1"/><circle cx="41" cy="101" r="1"/><circle cx="35" cy="101" r="1"/><circle cx="29" cy="101" r="1"/><circle cx="47" cy="105" r="1"/><circle cx="41" cy="105" r="1"/><circle cx="35" cy="105" r="1"/><circle cx="29" cy="105" r="1"/><circle cx="47" cy="109" r="1"/><circle cx="41" cy="109" r="1"/><circle cx="35" cy="109" r="1"/></g><path fill="#35495f" d="m56 160-7.589-2.53 2.529-7.589-7.589-2.53-2.53 7.589-7.589-2.529-2.53 7.589 7.589 2.53-2.53 7.589 7.59 2.53 2.53-7.589 7.589 2.529z"/><circle cx="43.351" cy="160" r="3" fill="#2b3e51"/><circle cx="204" cy="120" r="4" fill="#35495f"/><circle cx="220" cy="116" r="4" fill="#35495f"/><path fill="#223140" d="M232 140h-.768l-51.334 44h1.537L232 140.659z"/><circle cx="200" cy="168" r="8" fill="#35495f"/><circle cx="224" cy="152" r="8" fill="#35495f"/><path fill="#223140" d="M72.031 184c-1.94-15.556-7.48-27.273-16.522-34.846-12.489-10.46-27.41-9.106-27.559-9.088l.1.994c.146-.014 14.647-1.332 26.818 8.86 8.818 7.384 14.234 18.844 16.156 34.079z"/></svg>
